X:56
T:Cook in the Kitchen
R:Jig
C:Trad
M:6/8
L:1/8
K:G
E |: DGG GAG | FDE =F2 E | DGG GFG | Add cAG  |
  | DGG GAG | FDE =F2 d | cAG FGA |1BGG G2E:|2BGG G2A|
  |: BcB BAG | ABA AGF | GAG GFG | Add cAG |
  | BcB BAG | ABA ABd | cAG FGA|1BGG G2A:|2BGG G2B |
  |: d2 e f2 g | a2 g fed | cAG FGA | Add cAG |
  | d2 e f2 g | a2 g fed | cAG FGA |1BGG G2B:|2BGG G2BE|
